X: 1518
T: Nişâburek Peşrev
C: Fahri Kopuz
O: Turkey
F: http://compmusic.upf.edu/node/140
N: nisaburek--pesrev--duyek----fahri_kopuz
N: makam= nisaburek
N: form= pesrev
N: usul= duyek = 8/4
M: 8/4
L: 1/16
K: C ^9/8f ^3/4c ^3/4g 
Q: 1/4=144
%%MIDI tuningsystem comma53
A4 e8 z4  | z2 f=g af2e ed2c cB2A  | \
w:  1. HANE  |   | 
A3/2B/ c3/2d/ e=g fe e8  | 
w:   | 
z2 e4 d2 e4 d2 e2  | (3f=ga (3gfe z2 d4 c2 d4  | \
w:   |   | 
c2 d2 (3cde (3dcB z2 c4 B2  | 
w:   | 
c4 B2 c2 d2 e2 d2 cB  | B12 A2 B2  | \
w:   |   | 
z2 cd c2 d2 ed cB A2 GF  | 
w:   | 
E2 e4 e2 ed ce d3/2c/ d2  | A2 d4 d2 d3/2c/ Bd c3/2B/ c2  | \
w:   |   | 
z2 Bc de cB A2 a=g gf fe  | 
w:   | 
ef ed cB cd e2 f2 =g2 fe  | e=f3 f2 (3=gfe e4 z4  | 
w:   |   | 
z2 ga a2 a2 a=g2f gf2e  | e/^d/e/f/ e=d cB/c/ dB cA BG A2 z2  | 
w:   |   | 
z2 ga a2 a2 bc'2b ba2g  | gf2=g b/a/^3/4g/f/ f/a/g/f/ e4 z4  | 
w:   |   | 
z2 df ef df ee2d c2 Bc  | e/d/c/B/ c2 z2 B=c Bc BA Bc BA  | 
w:   |   | 
z2 e=f ef e^d e^9/8f e=d c3/2B/ A2  | \
w:   | 
B=c2B BA AG A4 z4  | 
w:   | 
E2 E2 c6 (3cBA A4  | Ad cd ef =ge fd ec dB cA  | 
w:   |  2. HANE  | 
g6 (3agf .e2 .f2 .d2 .e2  | c2 d{e}d/c/ B2 c{d}c/B/ a6 (3gfe  | \
w:   |   | 
e12 z4  | 
w:   | 
z2 ab ab ab z2 =ga ga ga  | =gf2e ed =c'/b/a a^3/4g2^1/4f (3fef g2  | 
w:   |   | 
g2 ^1/4fe e4 e2 e^9/8f d2 cB  | cd2e =c3/2B/ A2 =G3/2A/ ^3/4F3/2G/ E3/2F/ D2  | 
w:   |   | 
(3=cBA A=G AG2^3/4F (3FEF G4 FE  | \
w:   | 
E2 e^3/4f =ga fe E2 E^3/4F =GA FE  | 
w:   | 
z2 e^3/4f =ge fd ec dB cc2d  | e/d/c/B/ A2 B=c2c cB A2 B4  | 
w:   |   | 
=ga2a ab ag fg af e3/2f/ d2  | e=f3 f2 (3=gfe e4 z4  | 
w:   |   | 
z2 ga a2 a2 a=g2f gf2e  | e/^d/e/f/ e=d cB/c/ dB cA BG A2 z2  | 
w:   |   | 
z2 ga a2 a2 bc'2b ba2g  | gf2=g b/a/^3/4g/f/ f/a/g/f/ e4 z4  | 
w:   |   | 
z2 df ef df ee2d c2 Bc  | e/d/c/B/ c2 z2 B=c Bc BA Bc BA  | 
w:   |   | 
z2 e=f ef e^d e^9/8f e=d c3/2B/ A2  | \
w:   | 
B=c2B BA AG A4 z4  | 
w:   | 
E2 E2 c6 (3cBA A4  | ^d4 e4 za g=f e2 d=c  | \
w:   |  3. HANE  | 
=c6 BA A4 G=F E2  | 
w:   | 
g4 a4 z=c' ba ga bg  | a3b =c'd' bc' a4 z4  | \
w:   |   | 
g4 a4 a2 _b2 a2 g2  | 
w:   | 
ga g=f fg fe e3/2f/ e3/2f/ ef ed  | \
w:   | 
e=f2f f2 (3edc c4 z4  | 
w:   | 
cd cd e=f ed c2 de c_7/8B BA  | z2 A4 B2 c4 d2 f2  | 
w:   |   | 
e2 d2 c2 B2 A2 B2 c4  | z2 e4 d2 c4 B4  | \
w:   |   | 
A4 c2 d2 e4 z4  | z2 ga a2 a2 a=g2f gf2e  | 
w:   |   | 
e/^d/e/f/ e=d cB/c/ dB cA BG A2 z2  | \
w:   | 
z2 ga a2 a2 bc'2b ba2g  | 
w:   | 
gf2=g b/a/^3/4g/f/ f/a/g/f/ e4 z4  | \
w:   | 
z2 df ef df ee2d c2 Bc  | 
w:   | 
e/d/c/B/ c2 z2 B=c Bc BA Bc BA  | \
w:   | 
z2 e=f ef e^d e^9/8f e=d c3/2B/ A2  | 
w:   | 
B=c2B BA AG A4 z4  | E2 E2 c6 (3cBA A4  | \
w:   |   | 
d8 d2 e2 d2 c2  | 
w:  4. HANE  | 
B2 A2 B2 c2 d8  | d2 _3/4e2 d2 c2 d2 f2 e2 d2  | \
w:   |   | 
d2 ^2/4c2 c2 B2 B8  | z2 d4 c2 B4 c4  | 
w:   |   | 
B2 A4 G2 c8  | z2 d4 c2 B4 c4  | B2 A2 {B}A2 G2 G8  | \
w:   |   |   | 
f4 g4 g2 a2 g2 f2  | e2 ^d2 e2 f2 g8  | 
w:   |   | 
g4 f2 e2 a4 g2 f2  | f2 e2 e2 ^d2 e8  | \
w:   |   | 
z2 e4 d2 c4 B2 c2  | {e}d2 c2 B2 A2 c8  | 
w:   |   | 
z2 B4 c2 d4 c2 B2  | B2 A2 A2 ^G2 G8  | \
w:   |   | 
e8 B4 e4  | f2 g4 fe e8  | e2 ^d2 e2 f2 e4 d4  | 
w:   |   |   | 
^c2 ^d4 cB B8  | B2 c2 B4 ^c2 ^d2 c4  | \
w:   |   | 
^d2 e2 d2 e2 f4 g4  | z2 a2 g2 f2 e2 ^d2 c2 g2  | 
w:   |   | 
f2 g4 fe e8  | e8 {f}e2 ^d2 =c2 B2  | \
w:   |   | 
B=c ^d4 cB B8  | z2 =c4 B2 B2 c2 B2 A2  | 
w:   |   | 
=c2 B2 A2 G2 A8  | z2 A4 B2 c4 d2 f2  | \
w:   |   | 
e2 d2 c2 d2 c3B A4  | e8 {f}e2 d2 c2 B2  | 
w:   |   | 
A4 c2 d2 e4 z4  | z2 ga a2 a2 a=g2f gf2e  | \
w:   |   | 
e/^d/e/f/ e=d cB/c/ dB cA BG A2 z2  | 
w:   | 
z2 ga a2 a2 bc'2b ba2g  | gf2=g b/a/^3/4g/f/ f/a/g/f/ e4 z4  | 
w:   |   | 
z2 df ef df ee2d c2 Bc  | e/d/c/B/ c2 z2 B=c Bc BA Bc BA  | 
w:   |   | 
z2 e=f ef e^d e^9/8f e=d c3/2B/ A2  | \
w:   | 
B=c2B BA AG A4 z4  | 
w:   | 
E2 E2 c6 (3cBA A4  | |


